!!!COM: Mozart, Wolfgang Amadeus
!!!OPR: Quartet in A Major
!!!OTL:
!!!OMV: 4
!!!SCT: K 169
!!!SCA: Chronologisch-thematisches Verzeichnis sämtlicher Tonwerke Wolfgang Amade Mozarts (L. von Köchel; 1862, 2/1905, 3/1937, 1947)
!!!YOR: Breitkopf & Härtel Edition
!!!EED: Frances Bennion
!!!ENC: Frances Bennion
!!!CDT: 1756/1/27/-1791/12/5/
!!!OCY: Österreich
!!!YEC: Copyright (c) 1994, 2000 Center for Computer Assisted Research in the Humanities
!!!YEM: Rights to all derivative editions reserved.
!!!YEM: Refer to licensing agreement for further details.
!!!YEN: United States of America
**kern	**kern	**kern	**kern
*k[f#c#g#]	*k[f#c#g#]	*k[f#c#g#]	*k[f#c#g#]
*A:	*A:	*A:	*A:
*clefG	*clefG	*clefF	*clefC
*M2/4	*M2/4	*M2/4	*M2/4
*tb32	*tb32	*tb32	*tb32
=0-	=0-	=0-	=0-
4r	4r	4r	4r
8.a	4r	4r	4r
16aa	.	.	.
=1	=1	=1	=1
8.f#	2r	2r	2r
16ff#	.	.	.
8.d	.	.	.
16dd	.	.	.
=2	=2	=2	=2
8.B	4r	4r	4r
16b	.	.	.
16dd	4f#	16B	[4D
16cc#	.	16c#	.
16b	.	16d	.
16a	.	16c#	.
=3	=3	=3	=3
8g#	4e	8B	8D]
8a	.	8c#	8C#
8dd	8g#	8e	8BB
8cc#	8a	8e	8AA
=4	=4	=4	=4
8cc#	8a	4e	4E
8b	8g#	.	.
16a	4r	4r	4r
16aa	.	.	.
16a	.	.	.
16aa	.	.	.
=5	=5	=5	=5
16f#	2r	2r	2r
16ff#	.	.	.
16f#	.	.	.
16ff#	.	.	.
16d	.	.	.
16dd	.	.	.
16d	.	.	.
16dd	.	.	.
=6	=6	=6	=6
16B	4r	4r	4r
16b	.	.	.
16B	.	.	.
16b	.	.	.
16dd	4f#	16B	[4D
16cc#	.	16c#	.
16b	.	16d	.
16a	.	16c#	.
=7	=7	=7	=7
16g#	8.e	8B	8D]
16e	.	.	.
16a	.	16A	16C#
16dd	16b	16f#	16D
8cc#	8a	8e	8E
8b	8g#	8d	8EE
=8	=8	=8	=8
4a	4a	4e 4c#	4AA
8cc#	4r	8e	4A
8dd#	.	8f#	.
=9	=9	=9	=9
8ee	4.r	2B	4G#
16dd#	.	.	.
16cc#	.	.	.
8b	.	.	4D#
8a	8f#	.	.
=10	=10	=10	=10
8a	8f#	4r	4E
8g#	8e	.	.
8cc#	4r	8e	4A
8dd#	.	8f#	.
=11	=11	=11	=11
8ee	4.r	2B	4G#
16dd#	.	.	.
16cc#	.	.	.
8b	.	.	4D#
8a	8f#	.	.
=12	=12	=12	=12
8a	8f#	2r	4E
8g#	8e	.	.
8b	16g#	.	4r
.	16f#	.	.
8ee	16g#	.	.
.	16e	.	.
=13	=13	=13	=13
8cc#	16a	2r	2r
.	16g#	.	.
8ff#	16a	.	.
.	16f#	.	.
8dd#	16b	.	.
.	16a	.	.
8gg#	16b	.	.
.	16g#	.	.
=14	=14	=14	=14
8ee	16cc#	2r	2r
.	16b	.	.
8aa	16cc#	.	.
.	16a	.	.
8ff#	16dd#	.	.
.	16cc#	.	.
8bb	16dd#	.	.
.	16b	.	.
=15	=15	=15	=15
8gg#	8ee	2r	2r
16ff#	8a	.	.
16ee	.	.	.
16ee	8b	.	.
32dd#	.	.	.
32ee	.	.	.
16ff#	8B	.	.
16dd#	.	.	.
=16	=16	=16	=16
4ee	4e	8E	8EE
.	.	8E	8EE
8ee	4r	8E	8EE
16dd	.	8E	8EE
16cc#	.	.	.
=17	=17	=17	=17
8b	4r	8E	8EE
8r	.	8E	8EE
8cc#	8e	8E	8EE
16b	16d	8E	8EE
16a	16c#	.	.
=18	=18	=18	=18
8g#	8B	4E	4EE
8r	8r	.	.
8ee	8c#	4r	4r
16dd	16B	.	.
16cc#	16A	.	.
=19	=19	=19	=19
8b	8G#	2r	2r
8b	8G#	.	.
8cc#	8A	.	.
16b	16B	.	.
16a	16c#	.	.
=20	=20	=20	=20
8g#	8B	2r	2r
8r	4.r	.	.
8.a	.	.	.
16aa	.	.	.
=21	=21	=21	=21
8.f#	2r	2r	2r
16ff#	.	.	.
8.d	.	.	.
16dd	.	.	.
=22	=22	=22	=22
8.B	4r	4r	4r
16b	.	.	.
16dd	4f#	16B	[4D
16cc#	.	16c#	.
16b	.	16d	.
16a	.	16c#	.
=23	=23	=23	=23
8g#	4e	8B	8D]
8a	.	8c#	8C#
8dd	8g#	8e	8BB
8cc#	8a	8e	8AA
=24	=24	=24	=24
8cc#	8a	4e	4E
8b	8g#	.	.
16a	4r	4r	4r
16aa	.	.	.
16a	.	.	.
16aa	.	.	.
=25	=25	=25	=25
16f#	2r	2r	2r
16ff#	.	.	.
16f#	.	.	.
16ff#	.	.	.
16d	.	.	.
16dd	.	.	.
16d	.	.	.
16dd	.	.	.
=26	=26	=26	=26
16B	4r	4r	4r
16b	.	.	.
16B	.	.	.
16b	.	.	.
16dd	4f#	16B	[4D
16cc#	.	16c#	.
16b	.	16d	.
16a	.	16c#	.
=27	=27	=27	=27
16g#	8.e	8B	8D]
16e	.	.	.
16a	.	16A	16C#
16dd	16b	16f#	16D
8cc#	8a	8e	8E
8b	8g#	8d	8EE
=28	=28	=28	=28
4a	4a	4e 4c#	4AA
8.ee	4r	4r	4r
16cc	.	.	.
=29	=29	=29	=29
8a	4r	2r	4r
8a	.	.	.
8ff	4cc	.	[4A
8ff	.	.	.
=30	=30	=30	=30
8ee	8cc	4r	4A]
8dd	8b	.	.
8ee	4b	[4e	4G#
8ee	.	.	.
=31	=31	=31	=31
8cc	8a	8e]	8A
16b	4e	8e	8C
16a	.	.	.
8g#	.	8d	8BB
8a	8e	16c	8AA
.	.	16A	.
=32	=32	=32	=32
4b	4e	4G#	4E
8.ee	4r	4r	4r
16cc	.	.	.
=33	=33	=33	=33
8a	4r	4r	4r
8a	.	.	.
8ccc	4ee	4a	4A
8ccc	.	.	.
=34	=34	=34	=34
8ccc	4ff#	4d#	4D#
8bb	.	.	.
8aa	4ff	8d	4D
8gg#	.	8B	.
=35	=35	=35	=35
16aa	8ee	8c	8C
16ee	.	.	.
16ff	16a	16d	8D
16dd	16b	16f	.
8cc	8a	8e	8E
8b	8g#	8d	8EE
=36	=36	=36	=36
4a	4a	4c	4AA
8.cc	8.cc	8.cc	8.c
16a	16a	16a	16A
=37	=37	=37	=37
8e	8e	8e	8E
8e	8e	8e	8E
8f	8f	8f	8F
8f	8f	8f	8F
=38	=38	=38	=38
4e	4e	4e	4E
8ee	8cc	4r	4r
8ee	8a	.	.
=39	=39	=39	=39
8dd	8b	2r	2r
16cc	8g#	.	.
16b	.	.	.
8cc	8a	.	.
16b	8d#	.	.
16a	.	.	.
=40	=40	=40	=40
8g#	4e	4r	4r
8b	.	.	.
8.cc	8.cc	8.c	8.c
16a	16a	16A	16A
=41	=41	=41	=41
8e	8e	8E	8E
8e	8e	8E	8E
8f	8f	8F	8F
8f	8f	8F	8F
=42	=42	=42	=42
4e	4e	4E	2E
8b	8g#	4e	.
8b	8g#	.	.
=43	=43	=43	=43
8cc	2a	4e	8A
8cc#	.	.	8G
8dd	.	8d	8F#
8dd#	.	8A	8F
=44	=44	=44	=44
4ee	4g#	4B	4E
8.a	4r	4r	4r
16aa	.	.	.
=45	=45	=45	=45
8.f#	2r	2r	2r
16ff#	.	.	.
8.d	.	.	.
16dd	.	.	.
=46	=46	=46	=46
8.B	4r	4r	4r
16b	.	.	.
16dd	4f#	16B	[4D
16cc#	.	16c#	.
16b	.	16d	.
16a	.	16c#	.
=47	=47	=47	=47
8g#	4e	8B	8D]
8a	.	8c#	8C#
8dd	8g#	8e	8BB
8cc#	8a	8e	8AA
=48	=48	=48	=48
8cc#	8a	4e	4E
8b	8g#	.	.
16a	4r	4r	4r
16aa	.	.	.
16a	.	.	.
16aa	.	.	.
=49	=49	=49	=49
16f#	2r	2r	2r
16ff#	.	.	.
16f#	.	.	.
16ff#	.	.	.
16d	.	.	.
16dd	.	.	.
16d	.	.	.
16dd	.	.	.
=50	=50	=50	=50
16B	4r	4r	4r
16b	.	.	.
16B	.	.	.
16b	.	.	.
16dd	4f#	16B	[4D
16cc#	.	16c#	.
16b	.	16d	.
16a	.	16c#	.
=51	=51	=51	=51
16g#	8.e	8B	8D]
16e	.	.	.
16a	.	16A	16C#
16dd	16b	16f#	16D
8cc#	8a	8e	8E
8b	8g#	8d	8EE
=52	=52	=52	=52
4a	4a	4e 4c#	4AA
8ee	16c#	4r	8A
.	16A	.	.
8ee	16c#	.	8A
.	16A	.	.
=53	=53	=53	=53
8.ff#	16d	[2a	8A
.	16A	.	.
.	16d	.	8A
16gg#	16e	.	.
8aa	8f#	.	8A
16gg#	16e	.	8A
16ff#	16d	.	.
=54	=54	=54	=54
16ff#	16d	2a]	8AA
16ee	16c#	.	.
16dd	16B	.	8AA
16cc#	16A	.	.
16b	16G#	.	8AA
16a	16A	.	.
16g#	16B	.	8AA
16a	16c#	.	.
=55	=55	=55	=55
8dd	16f#	4A	8AA
.	16e	.	.
8dd	16f#	.	8AA
.	16d	.	.
8dd	16g#	4B	8AA
.	16f#	.	.
8dd	16g#	.	8AA
.	16e	.	.
=56	=56	=56	=56
8b#	4a	4A	8AA
8cc#	.	.	8A
8ee	16c#	4r	8A
.	16A	.	.
8ee	16c#	.	8A
.	16A	.	.
=57	=57	=57	=57
8.ff#	16d	[2a	8A
.	16A	.	.
.	16d	.	8A
16gg#	16e	.	.
8aa	16g#	.	8A
.	16f#	.	.
16gg#	16e	.	8A
16ff#	16d	.	.
=58	=58	=58	=58
16ff#	16d	2a]	8AA
16ee	16c#	.	.
16dd	16f#	.	8AA
16cc#	16e	.	.
16b	16d	.	8AA
16a	16c#	.	.
16g#	16B	.	8AA
16a	16c#	.	.
=59	=59	=59	=59
8dd	8B	8r	8r
8r	8r	8e	8GG#
8cc#	8A	8r	8r
8r	8r	8e	8AA
=60	=60	=60	=60
8b	8G#	8r	8r
8r	4.r	8e	8EE
8.a	.	4r	4r
16aa	.	.	.
=61	=61	=61	=61
8.f#	2r	2r	2r
16ff#	.	.	.
8.d	.	.	.
16dd	.	.	.
=62	=62	=62	=62
8.B	4r	4r	4r
16b	.	.	.
16dd	4f#	16B	[4D
16cc#	.	16c#	.
16b	.	16d	.
16a	.	16c#	.
=63	=63	=63	=63
8g#	4e	8B	8D]
8a	.	8c#	8C#
8dd	8g#	8e	8BB
8cc#	8a	8e	8AA
=64	=64	=64	=64
8cc#	8a	4e	4E
8b	8g#	.	.
16a	4r	4r	4r
16aa	.	.	.
16a	.	.	.
16aa	.	.	.
=65	=65	=65	=65
16f#	2r	2r	2r
16ff#	.	.	.
16f#	.	.	.
16ff#	.	.	.
16d	.	.	.
16dd	.	.	.
16d	.	.	.
16dd	.	.	.
=66	=66	=66	=66
16B	4r	4r	4r
16b	.	.	.
16B	.	.	.
16b	.	.	.
16dd	4f#	16B	[4D
16cc#	.	16c#	.
16b	.	16d	.
16a	.	16c#	.
=67	=67	=67	=67
16g#	8.e	8B	8D]
16e	.	.	.
16a	.	16A	16C#
16dd	16b	16f#	16D
8cc#	8a	8e	8E
8b	8g#	8d	8EE
=68	=68	=68	=68
4a	4a	4e 4c#	4AA
16aa	4r	4r	4r
16gg#	.	.	.
16ff#	.	.	.
16ee	.	.	.
=69	=69	=69	=69
16dd#	8b	8f#	8A
16ff#	.	.	.
8ee	8b	8g#	8G#
16ff#	4r	4r	4r
16ee	.	.	.
16dd	.	.	.
16cc#	.	.	.
=70	=70	=70	=70
16b#	8g#	8d#	8F#
16dd#	.	.	.
8cc#	8g#	8e	8E
16dd	4r	4r	4r
16cc#	.	.	.
16b	.	.	.
16a	.	.	.
=71	=71	=71	=71
16g#	8.e	8B	8D
16b	.	.	.
16a	.	8c#	8C#
16ee	16cc#	.	.
16dd	8b	8e	8G#
16b	.	.	.
16cc#	8a	8e	8A
16a	.	.	.
=72	=72	=72	=72
32g#	8b	32e	4E
32a	.	32f#	.
16b	.	16g#	.
8e	8g#	8B	.
16aa	4r	4r	4r
16gg#	.	.	.
16ff#	.	.	.
16ee	.	.	.
=73	=73	=73	=73
16dd#	8b	8f#	8A
16ff#	.	.	.
8ee	8b	8g#	8G#
16ff#	4r	4r	4r
16ee	.	.	.
16dd	.	.	.
16cc#	.	.	.
=74	=74	=74	=74
16b#	8g#	8d#	8F#
16dd#	.	.	.
8cc#	8g#	8e	8E
16dd	4r	4r	4r
16cc#	.	.	.
16b	.	.	.
16a	.	.	.
=75	=75	=75	=75
16g#	8.e	8B	8D
16e	.	.	.
16a	.	16c#	16C#
16dd	16b	16f#	16D
8cc#	8a	8e	8E
8b	8g#	8d	8E#
=76	=76	=76	=76
8a	8a	8c#	8F#
8r	4.r	4.r	4.r
16dd	.	.	.
16cc#	.	.	.
16b	.	.	.
16a	.	.	.
=77	=77	=77	=77
16g#	8d	8B	8E
16e	.	.	.
16a	16c#	4A	16F#
16dd	16f#	.	16D
8cc#	8e	.	8E
8b	8e	8G#	8E
=78	=78	=78	=78
8a	8e	8A	8A
8r	8r	8r	8r
16ddd	16dd	16f#	[4D
16ccc#	16cc#	16e	.
16bb	16b	16d	.
16aa	16a	16c#	.
=79	=79	=79	=79
16gg#	16g#	16B	8D]
16ee	16e	16G#	.
16aa	16a	16A	16C#
16ddd	16dd	16b	16D
8ccc#	8cc#	8a	8E
8bb	8b	8g#	8EE
=80	=80	=80	=80
4aa	4a	4a	4AA
4r	4r	4r	4r
==	==	==	==
*-	*-	*-	*-
!!!RWG1: This file contains only pitch and duration data.
!!!RWG2: Transposing instruments are not transposed.
!!!RWG3: Spines may have incompatible meters.
!!!RWG4: Durations of rests and tied notes may be interpreted.
!!!RWG: Key is interpreted using the Humdrum key tool.
!!!AFT: stage1
!!!END: 1997/04/15
!!format changes:
!!content changes:
!!public access: complete
!!!KEY: 2328456814
!!!EMD: Converted from MuseData to Humdrum Dec 16, 2000, by Andreas Kornstaedt using muse2kern.
